img/header-logo.svg

<svg width="40" height="40" viewBox="0 0 40 40" fill="none" xmlns="http://www.w3.org/2000/svg">
<path fill-rule="evenodd" clip-rule="evenodd" d="M19.521 40C30.3021 40 39.0419 31.0457 39.0419 20C39.0419 8.9543 30.3021 0 19.521 0C8.73983 0 0 8.9543 0 20C0 31.0457 8.73983 40 19.521 40Z" fill="white"/>
<mask id="mask0" mask-type="alpha" maskUnits="userSpaceOnUse" x="0" y="0" width="40" height="40">
<path fill-rule="evenodd" clip-rule="evenodd" d="M20 40C31.0457 40 40 31.0457 40 20C40 8.9543 31.0457 0 20 0C8.9543 0 0 8.9543 0 20C0 31.0457 8.9543 40 20 40Z" fill="white"/>
</mask>
<g mask="url(#mask0)">
<path d="M1.87961 27.1313C2.50776 27.1313 3.06746 27.0246 3.55871 26.8112C4.05801 26.5978 4.47677 26.2982 4.81501 25.9124C5.15324 25.5267 5.41095 25.0588 5.58812 24.5089C5.77334 23.959 5.86595 23.3434 5.86595 22.6621V12H9.11543V22.6621C9.11543 23.7209 8.94631 24.7018 8.60807 25.6046C8.27789 26.4993 7.79873 27.275 7.17058 27.9316C6.55048 28.58 5.79348 29.0889 4.89957 29.4583C4.00566 29.8194 2.99901 30 1.87961 30C0.75216 30 -0.258519 29.8194 -1.15243 29.4583C-2.04633 29.0889 -2.80736 28.58 -3.43551 27.9316C-4.05561 27.275 -4.53478 26.4993 -4.87301 25.6046C-5.2032 24.7018 -5.36829 23.7209 -5.36829 22.6621V12H-2.11881V22.6498C-2.11881 23.3311 -2.03023 23.9466 -1.85306 24.4966C-1.66783 25.0465 -1.4061 25.5185 -1.06787 25.9124C-0.721579 26.2982 -0.302812 26.5978 0.188435 26.8112C0.687734 27.0246 1.25146 27.1313 1.87961 27.1313Z" fill="#4592FF"/>
<path d="M27.5055 12V29.803H25.8384C25.5807 29.803 25.3633 29.762 25.1861 29.6799C25.017 29.5896 24.8519 29.4419 24.6909 29.2367L15.5706 17.368C15.6189 17.9097 15.6431 18.4104 15.6431 18.87V29.803H12.7801V12H14.4834C14.6203 12 14.7371 12.0082 14.8337 12.0246C14.9384 12.0328 15.027 12.0575 15.0995 12.0985C15.18 12.1313 15.2565 12.1847 15.329 12.2586C15.4015 12.3242 15.482 12.4145 15.5706 12.5294L24.7271 24.4473C24.7029 24.1601 24.6828 23.8769 24.6667 23.5978C24.6506 23.3187 24.6425 23.0602 24.6425 22.8222V12H27.5055Z" fill="#4592FF"/>
<path d="M46.3623 12L39.3076 29.803H36.3722L29.3176 12H31.9269C32.2087 12 32.4382 12.0698 32.6154 12.2093C32.7926 12.3488 32.9255 12.5294 33.014 12.751L37.1333 23.6101C37.2702 23.9631 37.399 24.3529 37.5198 24.7798C37.6487 25.1984 37.7695 25.6375 37.8822 26.0971C37.9789 25.6375 38.0835 25.1984 38.1963 24.7798C38.309 24.3529 38.4339 23.9631 38.5708 23.6101L42.6658 12.751C42.7303 12.5622 42.8551 12.3899 43.0403 12.2339C43.2336 12.078 43.4671 12 43.7409 12H46.3623Z" fill="#4592FF"/>
</g>
</svg>

<svg width="40" height="40" fill="none" xmlns="http://www.w3.org/2000/svg"><path fill-rule="evenodd" clip-rule="evenodd" d="M19.521 40c10.781 0 19.52-8.954 19.52-20S30.303 0 19.522 0C8.74 0 0 8.954 0 20s8.74 20 19.521 20z" fill="#fff"/><mask id="prefix__a" maskUnits="userSpaceOnUse" x="0" y="0" width="40" height="40"><path fill-rule="evenodd" clip-rule="evenodd" d="M20 40c11.046 0 20-8.954 20-20S31.046 0 20 0 0 8.954 0 20s8.954 20 20 20z" fill="#fff"/></mask><g mask="url(#prefix__a)" fill="#4592FF"><path d="M1.88 27.131c.628 0 1.187-.106 1.679-.32.499-.213.918-.513 1.256-.899.338-.385.596-.853.773-1.403.185-.55.278-1.166.278-1.847V12h3.25v10.662c0 1.059-.17 2.04-.508 2.943-.33.894-.81 1.67-1.437 2.327A6.565 6.565 0 014.9 29.458c-.894.361-1.901.542-3.02.542-1.128 0-2.139-.18-3.032-.542a6.692 6.692 0 01-2.284-1.526 6.9 6.9 0 01-1.437-2.327c-.33-.903-.495-1.884-.495-2.943V12h3.25v10.65c0 .681.088 1.297.265 1.847.185.55.447 1.021.785 1.415.346.386.765.686 1.256.9.5.213 1.063.32 1.692.32zM27.506 12v17.803h-1.668c-.257 0-.475-.041-.652-.123a1.624 1.624 0 01-.495-.443l-9.12-11.869c.048.542.072 1.042.072 1.502v10.933H12.78V12h1.703c.137 0 .254.008.35.025a.636.636 0 01.267.073c.08.033.157.087.229.16.072.066.153.157.242.271l9.156 11.918c-.024-.287-.044-.57-.06-.85-.016-.278-.025-.537-.025-.775V12h2.864zM46.362 12l-7.054 17.803h-2.936L29.318 12h2.609c.282 0 .511.07.688.21.178.139.31.32.399.541l4.12 10.86c.136.352.265.742.386 1.169.129.418.25.857.362 1.317.097-.46.202-.899.314-1.317.113-.427.238-.817.375-1.17l4.095-10.859a1.18 1.18 0 01.374-.517 1.08 1.08 0 01.7-.234h2.622z"/></g></svg>
